build/category/CitySolid.svg

<svg xmlns="http://www.w3.org/2000/svg" fill="none" viewBox="0 0 24 24" focusable="false"><path d="M0 0H24V24H0z"/><path fill="#74767B" fill-rule="evenodd" d="M12.8633 3.67017L12.8633 2.5853C12.8633 2.22131 12.5762 1.9353 12.2129 1.9353C11.8477 1.9353 11.5625 2.22131 11.5625 2.5853L11.5625 3.6702L10.1602 3.6702C10.0703 3.6702 9.98242 3.67873 9.89648 3.6958C9.81445 3.71347 9.71484 3.74307 9.63477 3.77655C9.56901 3.80461 9.50618 3.83739 9.44629 3.87491C9.37207 3.92416 9.27148 4.00143 9.20703 4.06558C9.14193 4.12975 9.08529 4.19887 9.03711 4.27295C8.99023 4.34244 8.95117 4.41629 8.91797 4.49451C8.88477 4.57367 8.85742 4.65451 8.83984 4.73706C8.82031 4.82932 8.81055 4.92368 8.81055 5.02017L8.81055 6.37656C8.81055 6.57593 8.89648 6.76584 9.04492 6.89865L10.293 8.01395C10.5215 8.21759 10.7383 8.43533 10.9414 8.66498C11.2109 8.96817 11.9688 8.80057 12.1719 8.44962C12.2695 8.27963 12.3857 8.1218 12.5156 7.98248C12.6094 7.8819 12.7129 7.78888 12.8242 7.70346C12.8867 7.65494 12.9512 7.60944 13.0176 7.56699C13.1758 7.46597 13.3457 7.38217 13.5254 7.31555L15.1572 6.71024C15.4316 6.60843 15.6133 6.34662 15.6133 6.05389L15.6133 5.02017C15.6133 4.92371 15.6035 4.82932 15.584 4.73706C15.5664 4.65451 15.541 4.57367 15.5078 4.49451C15.4746 4.41629 15.4355 4.34244 15.3887 4.27295C15.3398 4.19888 15.2832 4.12976 15.2188 4.06558C15.1543 4.0014 15.0859 3.9447 15.0117 3.89545C14.9414 3.84924 14.8672 3.8096 14.7891 3.77655C14.7109 3.74307 14.6289 3.71747 14.5469 3.6998C14.4551 3.68005 14.3613 3.67017 14.2637 3.67017L12.8633 3.67017ZM19.2656 6.62305C19.1475 6.63358 19.0303 6.66025 18.9141 6.70312L13.9746 8.53503C13.8418 8.58411 13.7236 8.64984 13.6172 8.7323C13.5107 8.81479 13.416 8.91394 13.3359 9.02979C13.2549 9.14566 13.1943 9.26785 13.1543 9.39636C13.1143 9.52487 13.0937 9.65967 13.0937 9.80078C13.0977 12.5274 13.0957 17.3669 13.0947 19.6796C13.0947 20.398 13.6768 20.9806 14.3945 20.9806L19.3994 20.9806C19.4961 20.9806 19.5898 20.9707 19.6826 20.9509C19.7646 20.9333 19.8457 20.9077 19.9248 20.8742C20.0869 20.8059 20.2295 20.7095 20.3535 20.5852C20.4785 20.4608 20.5742 20.3179 20.6426 20.1562C20.7139 19.9886 20.749 19.8134 20.749 19.6306L20.7451 16.8008L17.2227 16.8008C16.8584 16.8008 16.5723 16.5148 16.5723 16.1508C16.5723 15.7868 16.8584 15.5008 17.2227 15.5008L20.7441 15.5008L20.7422 14.189L17.2227 14.189C16.8584 14.189 16.5723 13.903 16.5723 13.539C16.5723 13.175 16.8584 12.889 17.2227 12.889L20.7402 12.889L20.7393 11.5771L17.2227 11.5771C16.8584 11.5771 16.5723 11.2911 16.5723 10.9272C16.5723 10.5631 16.8584 10.2772 17.2227 10.2772L20.7373 10.2772L20.7344 7.96887C20.7344 7.84549 20.7188 7.72638 20.6875 7.61157C20.6611 7.51392 20.6221 7.41934 20.5723 7.32788C20.5244 7.23831 20.4668 7.15619 20.4023 7.08142C20.3301 6.99881 20.2471 6.92526 20.1543 6.86072C20.0615 6.79614 19.9639 6.74435 19.8613 6.70544C19.7686 6.67023 19.6709 6.64554 19.5703 6.63135C19.4678 6.61685 19.3662 6.61414 19.2656 6.62305ZM3.3584 20.1556C3.28711 19.988 3.25195 19.8127 3.25195 19.6299L3.23633 13.9413C3.23633 13.468 3.28418 13.005 3.38086 12.5524C3.47754 12.0997 3.62305 11.6574 3.81641 11.2253C4.00977 10.7933 4.24316 10.3904 4.51562 10.0167C4.78906 9.64304 5.10254 9.29843 5.45508 8.98303L7.00781 7.59595C7.15234 7.46689 7.29688 7.40231 7.44141 7.40234C7.58594 7.40234 7.72852 7.46695 7.87305 7.59607L9.42578 8.98328C9.77832 9.29868 10.0908 9.64319 10.3633 10.0168C10.6357 10.3905 10.8691 10.7932 11.0625 11.2251C11.2549 11.657 11.3994 12.0994 11.4961 12.5519C11.5928 13.0044 11.6406 13.4672 11.6406 13.9403C11.6445 15.4745 11.6436 18.1072 11.6416 19.6816C11.6416 20.3989 11.0596 20.9799 10.3418 20.9799L4.60156 20.9799C4.50586 20.9799 4.41113 20.97 4.31836 20.9503C4.23633 20.9326 4.15527 20.907 4.07617 20.8735C3.91504 20.8052 3.77148 20.7089 3.64746 20.5845C3.52344 20.4601 3.42676 20.3172 3.3584 20.1556ZM8.29297 12.6499L6.45312 12.6499C6.08984 12.6499 5.80371 12.3639 5.80371 11.9999C5.80371 11.6359 6.08984 11.3499 6.45312 11.3499L8.29297 11.3499C8.65723 11.3499 8.94336 11.6359 8.94336 11.9999C8.94336 12.3639 8.65723 12.6499 8.29297 12.6499ZM8.29297 15.2617L6.45312 15.2617C6.08984 15.2617 5.80371 14.9757 5.80371 14.6117C5.80371 14.2477 6.08984 13.9617 6.45312 13.9617L8.29297 13.9617C8.65723 13.9617 8.94336 14.2477 8.94336 14.6117C8.94336 14.9757 8.65723 15.2617 8.29297 15.2617ZM8.29297 17.8735L6.45312 17.8735C6.08984 17.8735 5.80371 17.5875 5.80371 17.2235C5.80371 16.8595 6.08984 16.5735 6.45312 16.5735L8.29297 16.5735C8.65723 16.5735 8.94336 16.8595 8.94336 17.2235C8.94336 17.5875 8.65723 17.8735 8.29297 17.8735Z"/></svg>

<svg xmlns="http://www.w3.org/2000/svg" fill="none" viewBox="0 0 24 24" focusable="false"><path fill="#74767B" fill-rule="evenodd" d="M12.86 3.67V2.58c0-.36-.29-.65-.65-.65-.37 0-.65.29-.65.65v1.09h-1.4c-.09 0-.18 0-.27.02-.08.02-.18.05-.26.08-.07.03-.13.06-.19.1-.07.05-.17.13-.24.19-.06.06-.12.13-.17.21-.04.07-.08.14-.12.22-.03.08-.06.16-.08.24-.01.09-.02.19-.02.29v1.35c0 .2.08.39.23.52l1.25 1.12c.23.2.44.42.65.65.27.3 1.02.14 1.23-.22.09-.17.21-.32.34-.46.09-.1.2-.2.31-.28.06-.05.13-.1.19-.14.16-.1.33-.18.51-.25l1.63-.6a.71.71 0 0 0 .46-.66V5.02c0-.1-.01-.2-.03-.29-.02-.08-.04-.16-.08-.24a1 1 0 0 0-.12-.22.9.9 0 0 0-.17-.21c-.06-.06-.13-.12-.2-.17s-.15-.09-.23-.12c-.07-.03-.16-.06-.24-.08-.09-.01-.18-.02-.28-.02zm6.4 2.95c-.12.01-.23.04-.35.08l-4.94 1.83c-.13.05-.25.11-.36.2-.1.08-.2.18-.28.29a1.355 1.355 0 0 0-.24.78v9.87c0 .72.58 1.31 1.3 1.31h5c.1 0 .19-.01.29-.03.08-.02.16-.05.24-.08.16-.07.3-.17.43-.29.12-.12.22-.27.29-.43.07-.17.1-.34.1-.52V16.8h-3.52c-.37 0-.65-.29-.65-.65 0-.37.28-.65.65-.65h3.52v-1.32h-3.52c-.37 0-.65-.28-.65-.65 0-.36.28-.65.65-.65h3.52l-.01-1.31h-3.51c-.37 0-.65-.28-.65-.65 0-.36.28-.65.65-.65h3.51V7.96c0-.12-.02-.24-.05-.35-.02-.1-.06-.2-.11-.29s-.11-.17-.17-.24c-.07-.09-.16-.16-.25-.22-.09-.07-.19-.12-.29-.16-.1-.03-.19-.06-.29-.07-.11-.02-.21-.02-.31-.01M3.35 20.15c-.07-.17-.1-.34-.1-.53l-.02-5.68c0-.48.05-.94.15-1.39.09-.46.24-.9.43-1.33s.43-.83.7-1.21c.27-.37.59-.72.94-1.03L7 7.59c.15-.13.29-.19.44-.19.14 0 .28.06.43.19l1.55 1.39c.35.31.67.66.94 1.03.27.38.5.78.7 1.21a6.9 6.9 0 0 1 .58 2.72v5.74c0 .71-.59 1.29-1.3 1.29H4.6c-.1 0-.19 0-.29-.02-.08-.02-.16-.05-.24-.08-.16-.07-.3-.17-.43-.29-.12-.12-.22-.27-.29-.43m4.94-7.51H6.45c-.37 0-.65-.28-.65-.65 0-.36.28-.65.65-.65h1.84c.36 0 .65.29.65.65 0 .37-.29.65-.65.65m0 2.62H6.45c-.37 0-.65-.29-.65-.65 0-.37.28-.65.65-.65h1.84c.36 0 .65.28.65.65 0 .36-.29.65-.65.65m0 2.61H6.45c-.37 0-.65-.29-.65-.65 0-.37.28-.65.65-.65h1.84c.36 0 .65.28.65.65 0 .36-.29.65-.65.65"/></svg>
